X:1
T:James Gibb editions
T:Thou art coming, O my Saviour - Barnby
%%score [ ( 1 2 ) ( 3 4 ) ]
L:1/8
Q:1/4=84
M:4/4
K:Eb
V:1 treble nm="Midi_74"
V:2 treble 
V:3 bass nm="Midi_74"
V:4 bass 
V:1
"^Frances Ridley Havergal\n(136-79)""^Spes beata (87. 887. 77. 77)""^Thou art coming, O my Saviour""^Joseph Barnby\n(1838-96)" B2 e2 d2 c2 | %1
 B2 c2 B2 A2 || G2 G2 B2 AE | !^!G2 !^!F2 !^!E4 || G2 G2 x4 | c2 B2 =A2 G2 | G2 ^F2 || %7
[M:4/4] =A2 A2 x4 | d2 c2 B2 =A2 | =A2 B2 || e2 e2 x4 | d2 B2 B2 =A2 | B4 || B3 c x4 | %14
 d2 B2 c2 d2 | e4 || G3 A x4 | B2 G2 A2 B2 | c4 || c2 c2 x4 | f2 e2 d2 c2 | B4 || B2 e2 x4 | %23
 e2 c2 B2 F2 | G4 || A4 G4 |] x4 | x8 |] %28
V:2
 G2 G2 A2 A2 | B2 G2 F2 F2 || E2 E2 E2 E2 | !^!E2 !^!D2 !^!E4 || E2 F2 x4 | E2 E2 E2 E2 | D2 D2 || %7
[M:4/4] D2 ^C2 x4 | D2 D2 D2 ^F2 | ^F2 G2- || E2 !courtesy!=F2 x4 | F2 B,2 D2 E2 | D4 || D3 E x4 | %14
 F2 D2 E2 F2 | E4 || B,2 E2 x4 | E2 E2 E2 E2 | E4 || =E2 E2 x4 | F2 G2 A2 A2 | (A2 GF) || %22
 EF G2 x4 | A2 E2 E2 D2 | E4 || E4 E4 |] x4 | x8 |] %28
V:3
 B,2 B,2 x4 | B,2 CD E2 E2 || C2 D2 x4 | B,2 C2 x4 || B,2 C2 !^!B,2 !^!A,2 | !^!G,4 x4 | %6
 B,2 =B,2 || C2 G,2 =A,2 C2 | B,2 =A,2 x4 |[M:4/4] ^F,2 G,2 || =A,2 A,2 B,2 C2 | C2 B,2 x4 | %12
 G,2 =A,2 || B,C DE F2 C2 | B,4 x4 | B,3 B, || B,2 D2 C2 B,2 | B,4 x4 | %18
"^1 Thou art coming, O my Saviour,\nThou art coming, O my King,\nIn thy beauty all resplendent,\nIn thy glory all transcendent;\nWell may we rejoice and sing:\nComing! in the op'ning east\nHerald brightness slowly swells:\nComing! O my glorious Priest,\nHear we not thy golden bells?\n\n2 Thou art coming, Thou art coming:\nWe shall meet thee on thy way,\nWe shall see thee, we shall know thee,\nWe shall bless thee, we shall show thee\nAll our hearts could never say:\nWhat an anthem that will be,\nRinging out our love to thee,\nPouring out our rapture sweet\nAt thine own all-glorious feet." B,2 B,2 || %19
 B,2 E2 E2 _D2 | C4 x4 | C2 C2 || C2 C2 D2 E2 | %23
"^3 O the joy to see thee reigning,\nThee, my own beloved Lord!\nEv'ry tongue thy name confessing,\nWorship, honour, glory, blessing\nBrought to thee with glad accord;\nThee, my Master and my Friend,\nVindicated and enthroned;\nUnto earth's remotest end\nGlorified, adored, and owned." (F2 D2) x4 | %24
 B,2 _D2 || C2 A,2 F,2 B,2 |] B,4 | C4 B,4 |] %28
V:4
 E,2 E,2 x4 | F,2 F,2 G,2 E,2 || F,2 B,,2 x4 | E,2 C,2 x4 || G,,2 A,,2 !^!B,,2 !^!B,,2 | %5
 !^!E,4 x4 | E,2 D,2 || C,2 C,2 C,2 =A,,2 | D,2 D,2 x4 |[M:4/4] D,2 =E,2 || ^F,2 F,2 D,2 D,2- | %11
 G,2 G,2 x4 | C,2 C,2 || D,2 G,2 F,2 F,2 | B,,4 x4 | B,3 B, || B,2 B,2 !courtesy!_A,2 A,2 | %17
 (G,2 F,2) x4 | E,3 F, || G,2 E,2 F,2 G,2 | A,4 x4 | C2 B,2 || A,2 G,2 F,2 E,2 | (D,2 A,2) x4 | %24
 G,2 E,2 || A,2 A,,2 B,,2 B,,2 |] E,4 | A,,4 E,4 |] %28

